X: 145
T: Miss Barbara Campbell's Strathspey
R: strathspey
B: William Shepherd "1st Collection" 1793 p.14 #5
F: http://imslp.org/wiki/File:PMLP73094-Shepherd_Collections_HMT.pdf
C: William Shepherd (17??-1812)
Z: 2012 John Chambers <jc:trillian.mit.edu>
M: C
L: 1/8
K: F
C |\
TF>GA>F C>FA,>F | TF>GA>F E<GG>A |\
TF>GA>F C>FA,>F | B>GE>c AFTF :|
c |\
f>ga>f d>fc>f | Tf>ga>f e<g-Tg>a |\
f>ga>f c>fA>F | B>dG>B AFF ||
c |\
f>ga>f cfAf | f>ga>f e<gg>a |\
f<ad<f c<aA<f | B<dE<c AFTF |]
